run/templates/normal/set_symbol/csp.svg

<!-- Generated by IcoMoon.io -->
<svg version="1.1" xmlns="http://www.w3.org/2000/svg" width="18" height="32" viewBox="0 0 18 32">
<title>csp</title>
<path fill="#000000" d="M5.159 0v0h12.385l-1.403 15.138-3.244-7.966-4.312 24.828-2.831-25.769-2.622 13.222-3.128-17.354 5.35-0.009-0.194-2.091zM16.459 1.044l-7.54 0.056-0.103 24.319 3.584-21.362 3.034 7.146 1.025-10.159zM5.572 3.116l-2.844 0.015 0.497 11.488c0 0 0.26-0.982 0.35-1.478v-0c0.646-3.346 1.997-10.025 1.997-10.025z"></path>
</svg>

<?xml version="1.0" encoding="UTF-8" standalone="no"?>
<!-- Generated by IcoMoon.io -->

<svg
   version="1.1"
   width="17.540001"
   height="32.000999"
   viewBox="0 0 17.540001 32.000999"
   id="svg6"
   sodipodi:docname="csp.svg"
   inkscape:version="1.1.1 (3bf5ae0d25, 2021-09-20)"
   xmlns:inkscape="http://www.inkscape.org/namespaces/inkscape"
   xmlns:sodipodi="http://sodipodi.sourceforge.net/DTD/sodipodi-0.dtd"
   xmlns="http://www.w3.org/2000/svg"
   xmlns:svg="http://www.w3.org/2000/svg">
  <defs
     id="defs10" />
  <sodipodi:namedview
     id="namedview8"
     pagecolor="#ffffff"
     bordercolor="#666666"
     borderopacity="1.0"
     inkscape:pageshadow="2"
     inkscape:pageopacity="0.0"
     inkscape:pagecheckerboard="0"
     showgrid="false"
     inkscape:zoom="25.75"
     inkscape:cx="8.9902913"
     inkscape:cy="15.980583"
     inkscape:window-width="1920"
     inkscape:window-height="1009"
     inkscape:window-x="-8"
     inkscape:window-y="-8"
     inkscape:window-maximized="1"
     inkscape:current-layer="svg6" />
  <title
     id="title2">csp</title>
  <path
     fill="#000000"
     d="m 5.155,0.001 v 0 H 17.54 L 16.137,15.139 12.893,7.173 8.581,32.001 5.75,6.232 3.128,19.454 0,2.1 5.35,2.091 5.156,0 Z M 16.455,1.045 8.915,1.101 8.812,25.42 12.396,4.058 15.43,11.204 Z M 5.568,3.117 2.724,3.132 3.221,14.62 c 0,0 0.26,-0.982 0.35,-1.478 v 0 C 4.217,9.796 5.568,3.117 5.568,3.117 Z"
     id="path4" />
</svg>
